src/svg/home.svg

<?xml version="1.0" encoding="UTF-8"?><svg id="_イヤー_2" xmlns="http://www.w3.org/2000/svg" viewBox="0 0 591.02334 591.02334"><defs><style>.cls-1{fill:#050101;}</style></defs><path class="cls-1" d="M437.72303,293.94345c-11.0459,0-20,8.9541-20,20v153.36914h-61.63867l-.65918-76.72363c-.09375-10.97852-9.02051-19.82812-19.99902-19.82812h-79.98633c-10.94531,0-19.85742,8.79785-19.99805,19.74219l-.98926,76.80957h-62.68945v-153.36914c0-11.0459-8.9541-20-20-20s-20,8.9541-20,20v173.36914c0,11.0459,8.9541,20,20,20h102.43359c10.94531,0,19.85742-8.79785,19.99805-19.74219l.98926-76.80957h40.41309l.65918,76.72363c.09375,10.97852,9.02051,19.82812,19.99902,19.82812h101.46777c11.0459,0,20-8.9541,20-20v-173.36914c0-11.0459-8.9541-20-20-20Z"/><path class="cls-1" d="M510.87537,280.0206L308.93299,78.07724c-3.75098-3.75-8.8379-5.85742-14.14258-5.85742s-10.3916,2.10742-14.1416,5.85742L78.61072,280.11435c-7.81055,7.81055-7.81152,20.47461-.00098,28.28516,3.90527,3.90527,9.02441,5.85742,14.14258,5.85742s10.2373-1.95215,14.14258-5.85742L294.79041,120.504l187.7998,187.80176c7.8125,7.81055,20.47559,7.80957,28.28418,0,7.81055-7.81055,7.81152-20.47461,.00098-28.28516Z"/></svg>

<svg id="レイヤー_2" data-name="レイヤー 2" xmlns="http://www.w3.org/2000/svg" viewBox="0 0 591.02 591.02"><defs><style>.cls-1{fill:#050101;}</style></defs><path class="cls-1" d="M437.72,293.94a20,20,0,0,0-20,20V467.31H356.08l-.65-76.72a20,20,0,0,0-20-19.83h-80a20,20,0,0,0-20,19.74l-1,76.81H171.76V313.94a20,20,0,0,0-40,0V487.31a20,20,0,0,0,20,20H254.2a20,20,0,0,0,20-19.74l1-76.81H315.6l.66,76.72a20,20,0,0,0,20,19.83H437.72a20,20,0,0,0,20-20V313.94A20,20,0,0,0,437.72,293.94Z"/><path class="cls-1" d="M510.88,280,308.93,78.08a20,20,0,0,0-28.28,0l-202,202a20,20,0,1,0,28.28,28.29l187.9-187.9,187.8,187.81A20,20,0,0,0,510.88,280Z"/></svg>
